svg/u1f482_1f3ff.svg

<svg viewBox="0 0 128 128" xmlns="http://www.w3.org/2000/svg">
  <g id="hat_x5F_back">
    <path d="M101.07,22.55C97.22,6.15,74.51,4.54,64.8,4.38V4.36h-1.08h-1.08v0.02 c-9.71,0.16-31.88,1.77-35.73,18.17c-2.38,10.12-3.27,38.11-2.79,43.63c0.97,11.11,5.6,14.64,20.28,19.04 c10.72,3.21,16.08,4.28,18.24,4.61v0.09c0,0,0.19,0.08,1.08,0.02c0.89,0.06,1.08-0.02,1.08-0.02v-0.09c2.16-0.33,8-1.4,18.72-4.61 c14.68-4.4,19.5-7.93,20.47-19.04C104.47,60.65,103.45,32.67,101.07,22.55z" fill="#424242"/>
  </g>
  <g id="hairGroup">
    <path id="hair_3_" d="M96.6,77.52c-1.46-2.41-0.29-4.82,1.8-7.73c3.22-4.5,5.73-14.32,0.59-23.52 c0.01-0.05-0.93-1.53-0.92-1.58l-1.47-0.07c-0.48-0.07-16.53-0.1-32.59-0.1s-32.11,0.03-32.59,0.1c0,0-2.41,1.6-2.4,1.65 c-5.14,9.21-2.63,19.03,0.59,23.52c2.09,2.92,3.25,5.32,1.8,7.73c-1.44,2.38-4.89,2.74-4.89,2.74s0.43,2.49,2.16,3.86 c1.61,1.27,3.77,1.57,5.28,1.62c0,0,5.02,10.07,21.1,10.07l8.94,0l8.95,0c16.08,0,21.1-10.07,21.1-10.07 c1.51-0.04,3.67-0.34,5.28-1.62c1.73-1.36,2.16-3.86,2.16-3.86S98.04,79.9,96.6,77.52z" fill="#232020"/>
    <g id="hairHighlights_1_">
      <radialGradient id="SVGID_1_" cx="100.1678" cy="47.0864" gradientTransform="matrix(1 0 0 0.4912 -22.1147 56.7486)" gradientUnits="userSpaceOnUse" r="24.8976">
        <stop offset="0.7275" stop-color="#444140" stop-opacity="0"/>
        <stop offset="1" stop-color="#444140"/>
      </radialGradient>
      <path d="M63.99,95.79V84.67l27.17-2.53l2.88,3.59c0,0-5.02,10.07-21.1,10.07L63.99,95.79z" fill="url(#SVGID_1_)"/>
      <radialGradient id="SVGID_2_" cx="80.2281" cy="54.4084" gradientTransform="matrix(-0.9057 0.4238 -0.3144 -0.6719 189.2466 78.9372)" gradientUnits="userSpaceOnUse" r="6.9949">
        <stop offset="0.6628" stop-color="#444140"/>
        <stop offset="1" stop-color="#444140" stop-opacity="0"/>
      </radialGradient>
      <path d="M93.45,81.11c-4.73-6.96,3.7-9.47,3.7-9.47s0.01,0.01,0.01,0.01 c-1.24,2.11-1.7,3.99-0.57,5.87c1.44,2.38,4.89,2.74,4.89,2.74S97.45,85.11,93.45,81.11z" fill="url(#SVGID_2_)"/>
      <radialGradient id="SVGID_3_" cx="51.9686" cy="47.0864" gradientTransform="matrix(-1 0 0 0.4912 101.9371 56.7486)" gradientUnits="userSpaceOnUse" r="24.8979">
        <stop offset="0.7275" stop-color="#444140" stop-opacity="0"/>
        <stop offset="1" stop-color="#444140"/>
      </radialGradient>
      <path d="M64.03,95.79l0-11.12l-27.17-2.53l-2.88,3.59c0,0,5.02,10.07,21.1,10.07L64.03,95.79z" fill="url(#SVGID_3_)"/>
      <radialGradient id="SVGID_4_" cx="28.2164" cy="53.2657" gradientTransform="matrix(0.9057 0.4238 0.3144 -0.6719 -13.7572 100.2129)" gradientUnits="userSpaceOnUse" r="6.9948">
        <stop offset="0.6628" stop-color="#444140"/>
        <stop offset="1" stop-color="#444140" stop-opacity="0"/>
      </radialGradient>
      <path d="M34.57,81.11c4.73-6.96-3.7-9.47-3.7-9.47s-0.01,0.01-0.01,0.01 c1.24,2.11,1.7,3.99,0.57,5.87c-1.44,2.38-4.89,2.74-4.89,2.74S30.57,85.11,34.57,81.11z" fill="url(#SVGID_4_)"/>
    </g>
  </g>
  <g id="suit">
    <g>
      <linearGradient id="SVGID_5_" gradientTransform="matrix(1 0 0 -1 0 130)" gradientUnits="userSpaceOnUse" x1="64" x2="64" y1="38.003" y2="3.7659">
        <stop offset="0" stop-color="#F44336"/>
        <stop offset="0.3592" stop-color="#E73B32"/>
        <stop offset="1" stop-color="#C62828"/>
      </linearGradient>
      <path d="M64.14,96H64c-25.65,0.03-52,7.1-52,24.99V124h1.45h1.44h98.22h1.46H116v-3.01 C116,104.13,89.9,96,64.14,96z" fill="url(#SVGID_5_)"/>
      <path d="M66,124v-17.2c0-0.55-0.9-1-2-1s-2,0.45-2,1V124C62,124,66,124,66,124z" fill="#FFFFFF"/>
      <circle cx="74.1" cy="118.24" fill="#FFFFFF" r="3"/>
    </g>
    <path d="M46.73,90.78L46.73,90.78L46.73,90.78c-0.74,0-1.52,0.09-2.34,0.3c-5.12,1.28-15.45,3.34-20.11,3.34 c-0.19,0-0.38,0-0.55-0.01s-0.34-0.01-0.51-0.01c-7.42,0-9.52,7.12-7.32,10.51c1.86,2.87,4.86,3.93,8.36,3.93 c8.08,0,18.81-5.72,24.14-8.1C55.39,97.62,52.94,90.78,46.73,90.78z" fill="#404040"/>
    <path d="M104.79,94.41c-0.17,0-0.34,0-0.51,0.01c-0.17,0.01-0.36,0.01-0.55,0.01 c-4.66,0-14.99-2.06-20.11-3.34c-0.83-0.21-1.61-0.31-2.35-0.31c-6.22,0-8.66,6.84-1.66,9.97c5.34,2.38,16.06,8.1,24.14,8.1 c3.49,0,6.5-1.07,8.36-3.93C114.31,101.53,112.21,94.41,104.79,94.41z" fill="#404040"/>
    <path d="M76.27,92.14c-0.51,0-1.2,0.73-1.92,1.01c-2.29,0.89-5.6,1.82-7.69,2.23 c-1.29,0.25-2.32,1.54-2.66,3c-0.34-1.47-1.36-2.75-2.66-3c-2.09-0.4-5.36-1.65-7.7-2.35c-0.48-0.14-0.97-0.32-1.41-0.32 c-0.76,0-1.34,0.53-1.34,2.68v9.21c0,0.77,0.39,1.49,1.03,1.87c1.16,0.68,6.61,1.03,12.06,1.03s10.91-0.34,12.06-1.03 c0.65-0.38,1.03-1.1,1.03-1.87v-9.21C77.1,92.85,76.77,92.14,76.27,92.14z" fill="#383535"/>
  </g>
  <path id="ears" d="M90.53,50.43H37.46c-5.72,0-10.4,5.14-10.4,11.41c0,6.28,4.68,11.41,10.4,11.41h53.06 c5.72,0,10.4-5.14,10.4-11.41C100.93,55.57,96.25,50.43,90.53,50.43z" fill="#3C2B24"/>
  <path id="head" d="M64,16.04c-17.2,0-33.13,12.79-33.13,39.91c0,21.79,13.49,34.67,25.23,38.83 c2.8,0.99,5.5,1.49,7.9,1.49c2.38,0,5.07-0.49,7.85-1.47c11.76-4.14,25.28-17.03,25.28-38.84C97.13,28.83,81.2,16.04,64,16.04z" fill="#70534A"/>
  <path id="nose" d="M67.81,74.05c-0.1-0.04-0.21-0.07-0.32-0.08H60.5c-0.11,0.01-0.21,0.04-0.32,0.08 c-0.63,0.26-0.98,0.91-0.68,1.61s1.69,2.66,4.49,2.66c2.8,0,4.19-1.96,4.49-2.66C68.79,74.97,68.45,74.31,67.81,74.05z" fill="#33251F"/>
  <path id="mouth" d="M72.32,81.14c-3.15,1.87-13.46,1.87-16.61,0c-1.81-1.07-3.65,0.57-2.9,2.21 c0.74,1.61,6.37,5.36,11.23,5.36s10.42-3.75,11.16-5.36C75.95,81.71,74.12,80.06,72.32,81.14z" fill="#1A1717"/>
  <g id="eyes">
    <ellipse cx="47.62" cy="64.33" fill="#1A1717" rx="4.93" ry="5.1"/>
    <ellipse cx="80.49" cy="64.33" fill="#1A1717" rx="4.93" ry="5.1"/>
  </g>
  <g id="hat_x5F_front">
    <path d=" M92.11,64.14c0,0-7.36,29.23-28.11,29.23S35.89,64.14,35.89,64.14" fill="none" stroke="#4E342E" stroke-linecap="round" stroke-linejoin="round" stroke-miterlimit="10" stroke-width="3"/>
    <radialGradient id="SVGID_6_" cx="63.593" cy="55.9487" gradientTransform="matrix(1 9.353784e-03 -0.0119 1.2671 0.6659 -15.5413)" gradientUnits="userSpaceOnUse" r="42.5603">
      <stop offset="0.6328" stop-color="#424242"/>
      <stop offset="1" stop-color="#616161"/>
    </radialGradient>
    <path d="M103.99,66.18c0.48-5.53-0.54-33.51-2.92-43.63C97.22,6.15,74.51,4.54,64.8,4.38V4.36h-1.08 h-1.08v0.02c-9.71,0.16-31.88,1.77-35.73,18.17c-2.38,10.12-3.27,38.11-2.79,43.63c0.04,0.47,0.09,0.91,0.14,1.35 c1.9,0.66,4.36,0.95,5.95,0.72c11.02-1.67,22.21-3.95,33.41-3.95c11.41,0,22.82,2.29,34.06,3.95c1.48,0.22,4.01-0.01,6.14-0.56 C103.89,67.2,103.94,66.7,103.99,66.18z" fill="url(#SVGID_6_)"/>
  </g>
</svg>

<svg viewBox="0 0 128 128" xmlns="http://www.w3.org/2000/svg">
  <defs>
    <radialGradient id="SVGID_6_" cx="64.112898" cy="43.679611" gradientTransform="matrix(1 0.009354 -0.0119 1.2671 0 0)" gradientUnits="userSpaceOnUse" r="42.5603">
      <stop offset="0.6328" stop-color="#424242"/>
      <stop offset="1" stop-color="#616161"/>
    </radialGradient>
    <radialGradient id="SVGID_1_" cx="78.0531" cy="162.616937" gradientTransform="matrix(1 0 0 0.4912 0 0)" gradientUnits="userSpaceOnUse" r="24.8976">
      <stop offset="0.7275" stop-color="#444140" stop-opacity="0"/>
      <stop offset="1" stop-color="#444140"/>
    </radialGradient>
    <radialGradient id="SVGID_2_" cx="-57.732728" cy="-150.093756" gradientTransform="matrix(-0.9057 0.4238 -0.3144 -0.6719 0 0)" gradientUnits="userSpaceOnUse" r="6.9949">
      <stop offset="0.6628" stop-color="#444140"/>
      <stop offset="1" stop-color="#444140" stop-opacity="0"/>
    </radialGradient>
    <radialGradient id="SVGID_3_" cx="-49.9685" cy="162.616937" gradientTransform="matrix(-1 0 0 0.4912 0 0)" gradientUnits="userSpaceOnUse" r="24.8979">
      <stop offset="0.7275" stop-color="#444140" stop-opacity="0"/>
      <stop offset="1" stop-color="#444140"/>
    </radialGradient>
    <radialGradient id="SVGID_4_" cx="58.229876" cy="-76.951875" gradientTransform="matrix(0.9057 0.4238 0.3144 -0.6719 0 0)" gradientUnits="userSpaceOnUse" r="6.9948">
      <stop offset="0.6628" stop-color="#444140"/>
      <stop offset="1" stop-color="#444140" stop-opacity="0"/>
    </radialGradient>
    <linearGradient id="SVGID_5_" gradientTransform="matrix(1 0 0 -1 0 0)" gradientUnits="userSpaceOnUse" x1="64" x2="64" y1="-91.997" y2="-126.2341">
      <stop offset="0" stop-color="#F44336"/>
      <stop offset="0.3592" stop-color="#E73B32"/>
      <stop offset="1" stop-color="#C62828"/>
    </linearGradient>
  </defs>
  <path d="M101.07,22.55 C97.22,6.15 74.51,4.54 64.8,4.38 L64.8,4.36 L63.72,4.36 L62.64,4.36 L62.64,4.38 C52.93,4.54 30.76,6.15 26.91,22.55 C24.53,32.67 23.64,60.66 24.12,66.18 C25.09,77.29 29.72,80.82 44.4,85.22 C55.12,88.43 60.48,89.5 62.64,89.83 L62.64,89.92 C62.64,89.92 62.83,90 63.72,89.94 C64.61,90 64.8,89.92 64.8,89.92 L64.8,89.83 C66.96,89.5 72.8,88.43 83.52,85.22 C98.2,80.82 103.02,77.29 103.99,66.18 C104.47,60.65 103.45,32.67 101.07,22.55 Z" fill="#424242"/>
  <path id="hair_3_" d="M96.6,77.52 C95.14,75.11 96.31,72.7 98.4,69.79 C101.62,65.29 104.13,55.47 98.99,46.27 C99,46.22 98.06,44.74 98.07,44.69 L96.6,44.62 C96.12,44.55 80.07,44.52 64.01,44.52 C47.95,44.52 31.9,44.55 31.42,44.62 C31.42,44.62 29.01,46.22 29.02,46.27 C23.88,55.48 26.39,65.3 29.61,69.79 C31.7,72.71 32.86,75.11 31.41,77.52 C29.97,79.9 26.52,80.26 26.52,80.26 C26.52,80.26 26.95,82.75 28.68,84.12 C30.29,85.39 32.45,85.69 33.96,85.74 C33.96,85.74 38.98,95.81 55.06,95.81 L64,95.81 L72.95,95.81 C89.03,95.81 94.05,85.74 94.05,85.74 C95.56,85.7 97.72,85.4 99.33,84.12 C101.06,82.76 101.49,80.26 101.49,80.26 C101.49,80.26 98.04,79.9 96.6,77.52 Z" fill="#232020"/>
  <path d="M63.99,95.79 L63.99,84.67 L91.16,82.14 L94.04,85.73 C94.04,85.73 89.02,95.8 72.94,95.8 L63.99,95.79 Z" fill="url(#SVGID_1_)"/>
  <path d="M93.45,81.11 C88.72,74.15 97.15,71.64 97.15,71.64 C97.15,71.64 97.16,71.65 97.16,71.65 C95.92,73.76 95.46,75.64 96.59,77.52 C98.03,79.9 101.48,80.26 101.48,80.26 C101.48,80.26 97.45,85.11 93.45,81.11 Z" fill="url(#SVGID_2_)"/>
  <path d="M64.03,95.79 L64.03,84.67 L36.86,82.14 L33.98,85.73 C33.98,85.73 39,95.8 55.08,95.8 L64.03,95.79 Z" fill="url(#SVGID_3_)"/>
  <path d="M34.57,81.11 C39.3,74.15 30.87,71.64 30.87,71.64 C30.87,71.64 30.86,71.65 30.86,71.65 C32.1,73.76 32.56,75.64 31.43,77.52 C29.99,79.9 26.54,80.26 26.54,80.26 C26.54,80.26 30.57,85.11 34.57,81.11 Z" fill="url(#SVGID_4_)"/>
  <path d="M64.14,96 L64,96 C38.35,96.03 12,103.1 12,120.99 L12,124 L13.45,124 L14.89,124 L113.11,124 L114.57,124 L116,124 L116,120.99 C116,104.13 89.9,96 64.14,96 Z" fill="url(#SVGID_5_)"/>
  <path d="M66,124 L66,106.8 C66,106.25 65.1,105.8 64,105.8 C62.9,105.8 62,106.25 62,106.8 L62,124 C62,124 66,124 66,124 Z" fill="#FFFFFF"/>
  <path d="M77.1,118.24 A3 3 0 1 1 71.1,118.24 A3 3 0 1 1 77.1,118.24 Z" fill="#FFFFFF"/>
  <path d="M46.73,90.78 L46.73,90.78 L46.73,90.78 C45.99,90.78 45.21,90.87 44.39,91.08 C39.27,92.36 28.94,94.42 24.28,94.42 C24.09,94.42 23.9,94.42 23.73,94.41 C23.56,94.4 23.39,94.4 23.22,94.4 C15.8,94.4 13.7,101.52 15.9,104.91 C17.76,107.78 20.76,108.84 24.26,108.84 C32.34,108.84 43.07,103.12 48.4,100.74 C55.39,97.62 52.94,90.78 46.73,90.78 Z" fill="#404040"/>
  <path d="M104.79,94.41 C104.62,94.41 104.45,94.41 104.28,94.42 C104.11,94.43 103.92,94.43 103.73,94.43 C99.07,94.43 88.74,92.37 83.62,91.09 C82.79,90.88 82.01,90.78 81.27,90.78 C75.05,90.78 72.61,97.62 79.61,100.75 C84.95,103.13 95.67,108.85 103.75,108.85 C107.24,108.85 110.25,107.78 112.11,104.92 C114.31,101.53 112.21,94.41 104.79,94.41 Z" fill="#404040"/>
  <path d="M76.27,92.14 C75.76,92.14 75.07,92.87 74.35,93.15 C72.06,94.04 68.75,94.97 66.66,95.38 C65.37,95.63 64.34,96.92 64,98.38 C63.66,96.91 62.64,95.63 61.34,95.38 C59.25,94.98 55.98,93.73 53.64,93.03 C53.16,92.89 52.67,92.71 52.23,92.71 C51.47,92.71 50.89,93.24 50.89,95.39 L50.89,104.6 C50.89,105.37 51.28,106.09 51.92,106.47 C53.08,107.15 58.53,107.5 63.98,107.5 C69.43,107.5 74.89,107.16 76.04,106.47 C76.69,106.09 77.07,105.37 77.07,104.6 L77.07,95.39 C77.1,92.85 76.77,92.14 76.27,92.14 Z" fill="#383535"/>
  <path id="ears" d="M90.53,50.43 L37.46,50.43 C31.74,50.43 27.06,55.57 27.06,61.84 C27.06,68.12 31.74,73.25 37.46,73.25 L90.52,73.25 C96.24,73.25 100.92,68.11 100.92,61.84 C100.93,55.57 96.25,50.43 90.53,50.43 Z" fill="#3C2B24"/>
  <path id="head" d="M64,16.04 C46.8,16.04 30.87,28.83 30.87,55.95 C30.87,77.74 44.36,90.62 56.1,94.78 C58.9,95.77 61.6,96.27 64,96.27 C66.38,96.27 69.07,95.78 71.85,94.8 C83.61,90.66 97.13,77.77 97.13,55.96 C97.13,28.83 81.2,16.04 64,16.04 Z" fill="#70534A"/>
  <path id="nose" d="M67.81,74.05 C67.71,74.01 67.6,73.98 67.49,73.97 L60.5,73.97 C60.39,73.98 60.29,74.01 60.18,74.05 C59.55,74.31 59.2,74.96 59.5,75.66 C59.8,76.36 61.19,78.32 63.99,78.32 C66.79,78.32 68.18,76.36 68.48,75.66 C68.79,74.97 68.45,74.31 67.81,74.05 Z" fill="#33251F"/>
  <path id="mouth" d="M72.32,81.14 C69.17,83.01 58.86,83.01 55.71,81.14 C53.9,80.07 52.06,81.71 52.81,83.35 C53.55,84.96 59.18,88.71 64.04,88.71 C68.9,88.71 74.46,84.96 75.2,83.35 C75.95,81.71 74.12,80.06 72.32,81.14 Z" fill="#1A1717"/>
  <path d="M52.55,64.33 A4.93 5.1 0 1 1 42.69,64.33 A4.93 5.1 0 1 1 52.55,64.33 Z" fill="#1A1717"/>
  <path d="M85.42,64.33 A4.93 5.1 0 1 1 75.56,64.33 A4.93 5.1 0 1 1 85.42,64.33 Z" fill="#1A1717"/>
  <path d="M93.565,64.506 Q91.669,72.033 87.119,79.533 Q77.813,94.87 64,94.87 Q50.19,94.87 40.886,79.54 Q36.334,72.041 34.435,64.507 L34.435,64.506 Q34.069,63.052 35.524,62.685 Q36.251,62.502 36.706,62.774 Q37.161,63.046 37.345,63.773 L37.345,63.774 Q39.133,70.871 43.45,77.984 Q51.879,91.87 64,91.87 Q76.124,91.87 84.554,77.977 Q88.87,70.862 90.655,63.774 Q91.022,62.319 92.476,62.685 Q93.204,62.869 93.476,63.324 Q93.748,63.779 93.565,64.506 Z" fill="#4E342E"/>
  <path d="M103.99,66.18 C104.47,60.65 103.45,32.67 101.07,22.55 C97.22,6.15 74.51,4.54 64.8,4.38 L64.8,4.36 L63.72,4.36 L62.64,4.36 L62.64,4.38 C52.93,4.54 30.76,6.15 26.91,22.55 C24.53,32.67 23.64,60.66 24.12,66.18 C24.16,66.65 24.21,67.09 24.26,67.53 C26.16,68.19 28.62,68.48 30.21,68.25 C41.23,66.58 52.42,64.3 63.62,64.3 C75.03,64.3 86.44,66.59 97.68,68.25 C99.16,68.47 101.69,68.24 103.82,67.69 C103.89,67.2 103.94,66.7 103.99,66.18 Z" fill="url(#SVGID_6_)"/>
</svg>
